X:1
T:Title
%%score { ( 1 3 ) | 2 }
L:1/8
M:2/4
K:G
V:1 treble nm="Grand Piano"
V:3 treble 
V:2 treble 
V:1
 z2 z[Q:1/4=84] B | BG GB | c2 Bd | ed BG |[M:3/8] [FA]3 |[M:1/8] [FA] |[M:2/4] BB BB | %7
 [Ed]2 [Ec][EA] | GG B>A |[M:3/8] [B,G]3 |[M:1/8] G |[M:2/4] A4 | B4 | dd BG |[M:3/8] [FA]3 | %15
[M:1/8] [FA] |[M:2/4] BB BB | [Ed]2 [Ec][EA] | GG B>A |[M:11/8] [B,G]3 z z z z z z z2 |] %20
V:2
 z2 z [G,DG] | [G,DG][G,B,D] [G,B,D][G,D] | [G,E]2 [G,D][G,B,G] | %3
 [G,CG][G,B,G] [G,DG][K:bass][G,B,] |[M:3/8] [D,D]3 |[M:1/8] [D,D] | %6
[M:2/4][K:treble] [G,DG][G,F][K:bass] [G,E][G,D] | [C,G,]2 [C,G,][C,C] | %8
 [D,B,D][D,B,D] [D,G,D]>[D,F,C] |[M:3/8] [G,,G,]3 |[M:1/8] z |[M:2/4] z [D,D] .[D,D]2 | %12
 z[K:treble] [G,D] [G,D][G,DG] | [G,B,G][G,B,G] [G,DG][K:bass][G,B,] |[M:3/8] [D,D]3 | %15
[M:1/8] [D,D] |[M:2/4][K:treble] [G,DG][G,F][K:bass] [G,E][G,D] | [C,G,]2 [C,G,][C,C] | %18
 [D,B,D][D,B,D] [D,G,D]>[D,F,C] |[M:11/8] [G,,G,]3 z z z z z z z2 |] %20
V:3
 x4 | x4 | x4 | x4 |[M:3/8] x3 |[M:1/8] x |[M:2/4] x4 | x4 | x4 |[M:3/8] x3 |[M:1/8] x | %11
[M:2/4] z F FA | z G GB | x4 |[M:3/8] x3 |[M:1/8] x |[M:2/4] x4 | x4 | x4 |[M:11/8] x11 |] %20

